packages/assets/static/images/icons/check.svg

<svg width="24" height="24" viewBox="0 0 24 24" xmlns="http://www.w3.org/2000/svg">
<path d="M6.32208 17.0096C5.94625 17.0096 5.64184 16.7052 5.64184 16.3294V8.13497C5.64184 7.75913 5.94625 7.45472 6.32208 7.45472C6.69792 7.45472 7.00233 7.75913 7.00233 8.13497V16.3294C7.00233 16.7052 6.69792 17.0096 6.32208 17.0096Z"/>
<path d="M7.26763 16.0641H5.37654C4.13254 16.0641 3.12068 15.0522 3.12068 13.8082C3.12068 13.4324 3.42509 13.128 3.80092 13.128C4.17676 13.128 4.48117 13.4324 4.48117 13.8082C4.48117 14.3022 4.88336 14.7036 5.37654 14.7036H7.26763C7.76165 14.7036 8.163 14.3014 8.163 13.8082C8.163 13.315 7.7608 12.9128 7.26763 12.9128H5.69201C4.44801 12.9128 3.43614 11.901 3.43614 10.657C3.43614 9.41298 4.44801 8.40111 5.69201 8.40111H6.95301C8.19701 8.40111 9.20888 9.41298 9.20888 10.657C9.20888 11.0328 8.90447 11.3372 8.52863 11.3372C8.1528 11.3372 7.84839 11.0328 7.84839 10.657C7.84839 10.163 7.44619 9.76161 6.95301 9.76161H5.69201C5.19798 9.76161 4.79663 10.1638 4.79663 10.657C4.79663 11.1502 5.19883 11.5524 5.69201 11.5524H7.26763C8.51163 11.5524 9.52349 12.5642 9.52349 13.8082C9.52349 15.0522 8.51163 16.0641 7.26763 16.0641Z"/>
<path d="M13.5259 16.36H12.0328C11.6569 16.36 11.3525 16.0556 11.3525 15.6797C11.3525 15.3039 11.6569 14.9995 12.0328 14.9995H13.5259C13.9017 14.9995 14.2061 15.3039 14.2061 15.6797C14.2061 16.0556 13.9017 16.36 13.5259 16.36Z"/>
<path d="M19.1167 16.36H15.7239C15.3481 16.36 15.0437 16.0556 15.0437 15.6797C15.0437 15.3039 15.3481 14.9995 15.7239 14.9995H19.1167C19.4925 14.9995 19.7969 15.3039 19.7969 15.6797C19.7969 16.0556 19.4925 16.36 19.1167 16.36Z"/>
<path d="M19.1167 14.0063H17.3871C17.0113 14.0063 16.7069 13.7019 16.7069 13.3261C16.7069 12.9503 17.0113 12.6459 17.3871 12.6459H19.1167C19.4925 12.6459 19.7969 12.9503 19.7969 13.3261C19.7969 13.7019 19.4925 14.0063 19.1167 14.0063Z"/>
<path d="M13.8592 14.2436H11.1382C10.7624 14.2436 10.458 13.9392 10.458 13.5633V10.8423C10.458 10.6621 10.5294 10.4886 10.657 10.3611L18.8199 2.19897C19.0852 1.93368 19.5163 1.93368 19.7816 2.19897L22.5026 4.91996C22.6301 5.0475 22.7016 5.22096 22.7016 5.40123C22.7016 5.5815 22.6301 5.75496 22.5026 5.8825L14.3396 14.0455C14.2121 14.173 14.0386 14.2444 13.8584 14.2444L13.8592 14.2436ZM11.8185 12.8831H13.5778L21.0605 5.40038L19.3012 3.64109L11.8185 11.1238V12.8831Z"/>
<path d="M19.9814 8.12136C19.8071 8.12136 19.6336 8.05504 19.5002 7.92239L16.7792 5.20141C16.5139 4.93611 16.5139 4.50501 16.7792 4.23971C17.0445 3.97441 17.4756 3.97441 17.7409 4.23971L20.4618 6.96069C20.7271 7.22599 20.7271 7.6571 20.4618 7.92239C20.3292 8.05504 20.1557 8.12136 19.9814 8.12136Z"/>
<path d="M21.3895 20.0342H2.61049C1.86052 20.0342 1.25 19.4236 1.25 18.6737V6.12909C1.25 5.37912 1.86052 4.7686 2.61049 4.7686H12.7504C13.1262 4.7686 13.4307 5.07301 13.4307 5.44885C13.4307 5.82468 13.1262 6.12909 12.7504 6.12909H2.61049V18.6737H21.3895V9.16384C21.3895 8.788 21.6939 8.48359 22.0698 8.48359C22.4456 8.48359 22.75 8.788 22.75 9.16384V18.6737C22.75 19.4236 22.1395 20.0342 21.3895 20.0342Z"/>
</svg>

<svg viewBox="0 0 24 24" xmlns="http://www.w3.org/2000/svg" aria-hidden="true" fill="currentColor"><path d="M6.322 17.01a.68.68 0 0 1-.68-.68V8.134a.68.68 0 1 1 1.36 0v8.194a.68.68 0 0 1-.68.68"/><path d="M7.268 16.064H5.377a2.26 2.26 0 0 1-2.256-2.256.68.68 0 1 1 1.36 0c0 .494.402.896.896.896h1.89a.897.897 0 0 0 0-1.791H5.693a2.26 2.26 0 0 1-2.256-2.256 2.26 2.26 0 0 1 2.256-2.256h1.261a2.26 2.26 0 0 1 2.256 2.256.68.68 0 1 1-1.36 0 .897.897 0 0 0-.896-.895H5.692a.897.897 0 0 0 0 1.79h1.576a2.26 2.26 0 0 1 2.255 2.256 2.26 2.26 0 0 1-2.255 2.256m6.258.296h-1.493a.68.68 0 1 1 0-1.36h1.493a.68.68 0 1 1 0 1.36m5.59 0h-3.392a.68.68 0 1 1 0-1.36h3.393a.68.68 0 1 1 0 1.36m0-2.354h-1.729a.68.68 0 1 1 0-1.36h1.73a.68.68 0 1 1 0 1.36m-5.257.238h-2.72a.68.68 0 0 1-.681-.68v-2.722a.68.68 0 0 1 .199-.48l8.163-8.163a.68.68 0 0 1 .962 0l2.72 2.721a.68.68 0 0 1 0 .963l-8.162 8.163a.68.68 0 0 1-.482.198zm-2.04-1.36h1.759L21.06 5.4 19.3 3.641l-7.482 7.483z"/><path d="M19.981 8.121a.68.68 0 0 1-.48-.199l-2.722-2.72a.68.68 0 0 1 .962-.962l2.72 2.72a.68.68 0 0 1-.48 1.161"/><path d="M21.39 20.034H2.61c-.75 0-1.36-.61-1.36-1.36V6.129c0-.75.61-1.36 1.36-1.36h10.14a.68.68 0 1 1 0 1.36H2.61v12.545h18.78v-9.51a.68.68 0 1 1 1.36 0v9.51c0 .75-.61 1.36-1.36 1.36"/></svg>
